!!!!SEGMENT: pl-kk--kk-i-382--080-004_richling--msza-na-3-glosy-patrem.krn
!!!cenid: 18xx:1608
!!!COM: Richling
!!!COM-rismID: pe50045950
!!!CDT:
!!!CNT:
!!!OPR: Msza na 3 głosy
!!!OTL: Patrem
!!!OMV: 004
!!!PDT:
!!!AGN: Sacred; Mass
!!!YEC: Copyright 2022 Narodowy Instytut Fryderyka Chopina (https://polishscores.org)
!!!YEM: License CC-BY-4.0 (https://creativecommons.org/licenses/by/4.0)
!!!SMS-siglum: PL-Kk
!!!SMS-shelfmark: Kk.I.382
!!!SMS-shelfwork: 080-004 M
!!!SMS-variant:
!!!SMS-altvar:
!!!NIFC-rismSourceID: 1001139027
!!!NIFC-rismChildID: 1001142972
!!!NIFC-islandoraID: pl-kk:6162
!!!URL-pdf-islandora: https://repozytorium.nifc.pl/islandora/object/pl-kk%3A6162/datastream/PDF/view
!!!URL-scan: https://polish.musicsources.pl/pl/lokalizacje/galeria/rekopisy/5994 @EN{Scan on Polish Music Sources Website} @PL{Skany w portalu Dziedzictwo Muzyki Polskiej w otwartym dostępie}
!!!IIIF:
!!!ONB-nifc: S/T1 od 0062, A/B1 od 0206, B2 od 0279. Części Mszy: 1. Kyrie, 2. Et in terra, 3. Tollite portas, 4. Patrem, 5. Sanctus, 6. Benedictus, 7. Agnus Dei, 8. Dona
!!!AIN: 1 alto 1 bass 1 tenor
!!!key:
**kern	**text	**kern	**text	**dynam	**kern	**text
*part3	*	*part2	*	*	*part1	*
*staff3	*	*staff2	*	*	*staff1	*
*Ibass	*	*Ialto	*	*	*Itenor	*
*I"Basso II	*	*I"Alto. vel Basso I	*	*	*I"Soprano vel Tenore I.	*
*I'B2	*	*I'A / B1	*	*	*I'S / T1	*
*clefF4	*	*clefF4	*	*	*clefG2	*
*	*	*	*	*	*ITrd7c12	*
*k[f#c#g#]	*	*k[f#c#g#]	*	*	*k[f#c#g#]	*
*A:	*	*A:	*	*	*A:	*
*M4/4	*	*M4/4	*	*	*M4/4	*
*met(c)	*	*met(c)	*	*	*met(c)	*
=1	=1	=1	=1	=1	=1	=1
!	!	!LO:TX:t=P:problem=all\center or right&colon; global	!	!	!	!
!LO:TX:a:i:t=Moderato risoluto.	!	!LO:TX:a:i:t=Credo.	!	!	!LO:TX:a:i:t=Moderato \nrisoluto.	!
4F#\	Pa-	4F#\	Pa-	f	4F#/	Pa-
4C#\	-trem	4C#\	-trem	.	4C#/	-trem
4F#\	o-	4F#\	o-	.	4F#/	o-
8F#\	-mni-	8F#\	-mni-	.	8A/	-mni-
8F#\	-po-	8F#\	-po-	.	8A/	-po-
=2	=2	=2	=2	=2	=2	=2
*	*	*2\right	*	*	*	*
!	!	!LO:TX:t=P:problem=2\right&colon; global	!	!	!	!
2C#/	-ten-	2E#X\	-ten-	.	2G#/	-ten-
4BB#X/	-tem	4F#\	-tem	.	4G#/	-tem
4C#/	fa-	4E#X\	fa-	.	4G#/	fa-
=3	=3	=3	=3	=3	=3	=3
4F#\	-cto-	4F#\	-cto-	.	4A/	-cto-
4F#\	-rem	4F#\	-rem	.	4F#/	-rem
4D\	coe-	4F#\	cae-	.	4A/	cae-
8D\	-li	8F#\	-li	.	8B/	-li
8D\	et	8F#\	et	.	8B/	et
!LO:LB:g=original	!	!LO:LB:g=original	!	!	!LO:LB:g=original	!
=4	=4	=4	=4	=4	=4	=4
*	*	*	*	*	*2\right	*
!	!	!	!	!	!LO:TX:t=P:problem=2\right&colon; global	!
2C#/	ter-	2E#X\	ter-	.	2c#\	ter-
2C#/	-ra	2E#\	-ra	.	2G#\	-ra,
=5	=5	=5	=5	=5	=5	=5
4F#\	vi-	4F#\	vi-	.	4A/	vi-
4F#\	-si-	4F#\	-si-	.	4A/	-si-
8En\	-bi-	8G#\	-bi-	.	8B/	-bi-
8E\	-li-	8G#\	-li-	.	8B/	-li-
4E\	-um	4G#\	-um	.	4B/	-um
=6	=6	=6	=6	=6	=6	=6
!	!	!	!	!	!LO:TX:t=P:problem=all\center or right&colon; global	!
8A\	o-	8A\	o-	.	8c#\	o-
8A\	-mni-	8A\	-mni-	.	8c#\	-mni-
4A\	-um	4c#\	-um	.	4c#\	-um
8G#\	et	8B#X\	et	.	8d#X\	et
8G#\	in-	8B#\	in-	.	8d#\	in-
8G#\	-vi-	8B#\	-vi-	.	8d#\	-vi-
8G#\	-si-	8B#\	-si-	.	8d#\	-si-
!LO:LB:g=original	!	!LO:LB:g=original	!	!	!LO:LB:g=original	!
=7	=7	=7	=7	=7	=7	=7
8F#\	-bi-	8c#\	-bi-	.	8e\	-bi-
8F#\	-li-	8c#\	-li-	.	8e\	-li-
4G#\	-um	4B#X\	-um:	.	4d#X\	-um;
4G#\	et	4G#\	Et	.	4G#/	et
4G#\	in	4G#\	in	.	4G#/	in
=8	=8	=8	=8	=8	=8	=8
2C#/	u-	(2G#\	u-	.	2e\	u-
2C#/	-num	4A\)	.	.	2e\	-num
.	.	4G#\	-num	.	.	.
=9	=9	=9	=9	=9	=9	=9
4C#/	Do-	4F##X\	Do-	.	4d#X\	Do-
4C#/	-mi-	4F##\	-mi-	.	4d#\	-mi-
2BB#X/	-num	(4G#\	-num	.	2d#\	-num
!	!	!LO:TX:t=P:problem=♮ przed ♯	!	!	!	!
.	.	4F#X\	.	.	.	.
=10	=10	=10	=10	=10	=10	=10
2C#/	Je-	2E\)	Je-	.	(4c#\	Je-
.	.	.	.	.	4G#\)	.
!LO:TX:t=P:problem=2\right&colon; global	!	!	!	!	!	!
2E/	-sum	2G#\	-sum	.	2c#\	-sum
!	!	!LO:PB:g=original	!	!	!	!
=11	=11	=11	=11	=11	=11	=11
2D#X/	Chris-	(4F#\	Chris-	.	2c#\	Chris-
.	.	4A\	.	.	.	.
2GG#/	.	4G#\	.	.	2B#X\	.
.	.	4F#\	.	.	.	.
!	!	!	!	!	!LO:LB:g=original	!
=12	=12	=12	=12	=12	=12	=12
2C#/	-tum	2E\)	-tum.	.	2c#\	-tum.
2r	.	2r	.	.	2r	.
!LO:LB:g=original	!	!	!	!	!	!
=13	=13	=13	=13	=13	=13	=13
4AA/	Et	4E\	Et	.	4c#\	Et
4AA/	in	4E\	in	.	4c#\	in
4C#/	spi-	4E\	Spi-	.	4A\	Spi-
8C#/	-ri-	8E\	-ri-	.	8A/	-ri-
8C#/	-tum	8E\	-tum	.	8A/	-tum
=14	=14	=14	=14	=14	=14	=14
*2\right	*	*	*	*	*	*
2E\	San-	2G#\	San-	.	2B\	San-
2E\	-ctum	2G#\	-ctum	.	2B\	-ctum
=15	=15	=15	=15	=15	=15	=15
4.BB/	Do-	4.F#\	Do-	.	4.d\	Do-
8BB/	-mi-	8F#\	-mi-	.	8d\	-mi-
2D/	-num	2F#\	-num	.	2B\	-num
!	!	!LO:LB:g=original	!	!	!	!
=16	=16	=16	=16	=16	=16	=16
4F#\	et	4A\	et	.	4c#\	et
4F#\	vi-	4A\	vi-	.	4c#\	vi-
4F#\	-vi-	4A\	-vi-	.	4c#\	-vi-
4F#\	-fi-	4A\	-fi-	.	4c#\	-fi-
!	!	!	!	!	!LO:LB:g=original	!
=17	=17	=17	=17	=17	=17	=17
2E#X\	-can-	2G#\	-can-	.	(4.c#\	-can-
.	.	.	.	.	8d\)	.
4F#\	-tem.	4A\	-tem	.	4c#\	-tem
!LO:LB:g=original	!	!	!	!	!	!
8F#\	qui	8A\	qui	.	8c#\	qui
8F#\	ex	8A\	ex	.	8c#\	ex
=18	=18	=18	=18	=18	=18	=18
4D\	Pa-	4A\	Pa-	.	4f#\	Pa-
4D\	-tre	4A\	-tre	.	4f#\	-tre
4D\	fi-	4F#\	fi-	.	4A/	fi-
8D\	-li-	8F#\	-li-	.	8B/	-li-
8D\	-o-	8F#\	-o-	.	8B/	-o-
=19	=19	=19	=19	=19	=19	=19
4C#/	-que	4E#X\	-que	.	4c#\	-que
4C#/	pro-	4E#\	pro-	.	4G#\	pro-
2BB#X/	-ce-	2F#\	-ce-	.	2A\	-ce-
!	!	!LO:LB:g=original	!	!	!	!
=20	=20	=20	=20	=20	=20	=20
4C#/	-dit,	4E#X\	-dit,	.	4G#/	-dit,
4r	.	4r	.	.	4r	.
4C#/	qui	4E#\	qui	.	4G#/	qui
!LO:TX:t=P:problem=takt wykreślony	!	!	!	!	!LO:TX:b:t=V&colon;S&colon;	!
4C#/	cum	4E#\	cum	.	4G#/	cum
!LO:LB:g=original	!	!	!	!	!LO:PB:g=original	!
=21	=21	=21	=21	=21	=21	=21
4F#\	Pa-	4F#\	Pa-	.	4A/	Pa-
8E\	-tre	8F#\	-tre	.	8A/	-tre
8E\	et	8F#\	et	.	8A/	et
8D#X\	fi-	8F#\	fi-	.	8A/	fi-
8D#\	-li-	8F#\	-li-	.	8A/	-li-
4C#/	-o	4F#\	-o	.	4A/	-o
=22	=22	=22	=22	=22	=22	=22
4BB#X/	si-	4F#\	si-	.	4A/	si-
4BB#/	-mul	4F#\	-mul	.	4G#/	-mul
4C#/	a-	4E\	a-	.	4G#/	a-
4E\	-do-	4G#\	-do-	.	4c#\	-do-
!LO:LB:g=original	!	!	!	!	!	!
=23	=23	=23	=23	=23	=23	=23
2D#X\	-ra-	2F#\	-ra-	.	2c#\	-ra-
4D#\	-tur	4F#\	-tur,	.	4B#X\	-tur
4D#\	et	4F#\	et	.	4G#\	et
!	!	!LO:LB:g=original	!	!	!LO:LB:g=original	!
=24	=24	=24	=24	=24	=24	=24
4C#/	con-	4E\	con-	.	4G#\	con-
4E/	-glo-	4G#\	-glo-	.	4c#\	-glo-
4E/	-ri-	4G#\	-ri-	.	4c#\	-ri-
4C#/	-fi-	4c#\	-fi-	.	4e\	-fi-
=25	=25	=25	=25	=25	=25	=25
2G#\	-ca-	2B#X\	-ca-	.	2e\	-ca-
4G#\	-tur	4B#\	-tur	.	4d#X\	-tur
8G#\	qui	8G#\	qui	.	8G#/	qui
8G#\	lo-	8G#\	lo-	.	8G#/	lo-
=26	=26	=26	=26	=26	=26	=26
4.E\	-cu-	4.G#\	-cu-	.	4.c#\	-cu-
8E\	-tus	8G#\	-tus	.	8c#\	-tus
4E\	est	4G#\	est	.	4B\	est
8E\	per	8G#\	per	.	8c#\	per
8E\	Pro-	8G#\	Pro-	.	8B\	Pro-
!LO:LB:g=original	!	!	!	!	!	!
=27	=27	=27	=27	=27	=27	=27
!	!	!	!	!	!	!LO:MO:P=s--phe-
2E\	-phe-	2F##X\	-phe-	.	2A#X\	-fe-
4E\	-tas	4G#\	-tas	.	4B\	-tas
!	!	!LO:TX:t=P:problem=♮ przed ♯ dopisane ołówkiem	!	!	!	!
4D#X\	et	4F#X\	et	.	4B\	et
!	!	!LO:LB:g=original	!	!	!LO:LB:g=original	!
=28	=28	=28	=28	=28	=28	=28
4C#/	u-	4E\	u-	.	4B/	u-
4C#/	-nam	4E\	-nam	.	4A/	-nam
4AA/	San-	4A\	San-	.	4c#/	San-
8BB/	-ctam	8G#\	-ctam	.	8B/	-ctam
8BB/	ca-	8G#\	Ca-	.	8B/	ca-
=29	=29	=29	=29	=29	=29	=29
4.C#/	-tho-	4.F##X\	-tho-	.	4.B\	-tho-
8C#/	-li-	8F##\	-li-	.	8A#X\	-li-
4C#/	-cam,	4F##\	-cam,	.	4A#\	-cam
4Cn/	et	4F##\	et	.	4A#\	et
=30	=30	=30	=30	=30	=30	=30
4BB/	A-	4G#\	a-	.	4B\	A-
4BB/	-po-	4G#\	-po-	.	4e\	-po-
!	!	!LO:TX:t=P:problem=♮ przed ♯	!	!	!	!
4BB/	-sto-	4F#X\	-sto-	.	4d#X\	-sto-
4BB/	-li-	4A\	-li-	.	4c#\	-li-
!LO:LB:g=original	!	!	!	!	!	!
=31	=31	=31	=31	=31	=31	=31
2E\	-cam	2G#\	-cam	.	2B\	-cam,
4r	.	4r	.	.	4r	.
4AA/	ec-	(8A\L	ec-	.	(8c#\L	ec-
.	.	8F#\J)	.	.	8A\J)	.
!	!	!LO:LB:g=original	!	!	!LO:LB:g=original	!
=32	=32	=32	=32	=32	=32	=32
4.BB/	-cle-	4.E\	-cle-	.	4.G#/	-cle-
8BB/	-si-	8E\	-si-	.	8G#/	-si-
4BB/	-am.	4D#X\	-am et	.	4F#/	-am.
!LO:TX:a::t=P:problem=Solo dopisane ołówkiem	!	!	!	!	!	!
4B\	Et	4r	.	.	4r	.
=33	=33	=33	=33	=33	=33	=33
8A\L	vi-	4r	.	.	2r	.
8B\J	.	.	.	.	.	.
8A\	-tam	4B\	et	.	.	.
8G#\	ven-	.	.	.	.	.
4F#\	-tu-	8A\L	vi-	.	4r	.
.	.	8B\J	.	.	.	.
4E\	-ri	8A\	-tam	.	4B\	Et
.	.	8G#\	ven-	.	.	.
=34	=34	=34	=34	=34	=34	=34
4BB/	sae-	4F#\	-tu-	.	8A/L	vi-
.	.	.	.	.	8B/J	.
8BB#X/	-cu-	8F#\	-ri	.	8A/	-tam
8C#/	-li.	8E#X\	ven-	.	8G#/	ven-
!LO:TX:t=P:problem=brak początku łuku	!	!	!	!	!	!
(2AA/	A-	8F#\L	-tu-	.	4F#/	-tu-
.	.	8C#\J	.	.	.	.
.	.	4F#\	-ri	.	4c#\	-ri
!LO:LB:g=original	!	!LO:LB:g=original	!	!	!	!
=35	=35	=35	=35	=35	=35	=35
4D/)	.	[4F#\	sae-	.	(8B\L	sae-
.	.	.	.	.	8c#\J)	.
8D/	-men	8F#\]	.	.	8B\	-cu-
8C#/	a-	8E\	-cu-	.	8A\	-li
4BB/	-men,	4D\	-li,	.	4G#\	A-
4r	.	4r	.	.	4e\	-men
!	!	!	!	!	!LO:LB:g=original	!
=36	=36	=36	=36	=36	=36	=36
4AA/	a-	4C#\	A-	.	4e\	A-
4C#/	-men,	4E\	-men	.	4A\	-men
4r	.	4r	.	.	2B\	a-
(4E\	a-	(4G#\	A-	.	.	.
=37	=37	=37	=37	=37	=37	=37
4A\)	.	4A\)	.	.	4c#\	.
4AA/	-men,	4c#\	-men	.	4e\	-men,
4r	.	4r	.	.	2B\	a-
4E\	a-	(4G#\	A-	.	.	.
=38	=38	=38	=38	=38	=38	=38
(4A\	.	4A\)	.	.	4c#\	.
4Gn\	.	4A\	-men,	.	4c#\	-men
*	*	*	*ij	*	*	*
4F#\	.	4A\	A-	.	4d\	a-
4C#\)	-men	4A\	-men	.	4e\	-men
*	*	*	*Xij	*	*	*
!LO:LB:g=original	!	!LO:LB:g=original	!	!	!	!
=39	=39	=39	=39	=39	=39	=39
(2D\	A-	(2A\	A-	.	2f#\	A-
2E\	.	2G#\)	.	.	(4.B\	.
.	.	.	.	.	8d\	.
=40	=40	=40	=40	=40	=40	=40
1AA/)	-men.	1E\	-men.	.	1c#/)	-men.
==	==	==	==	==	==	==
*-	*-	*-	*-	*-	*-	*-
!!!system-decoration: [(s1,s2,s3)]
!!!EED: Leszek Kubiak
!!!EEV: 2021-03-26
!!!ENC: Andrzej Borzym
!!!END: 2021-03-05
